svgs/sharp-light/window-restore.svg

<svg xmlns="http://www.w3.org/2000/svg" viewBox="0 0 512 512"><!--! Font Awesome Pro 6.6.0 by @fontawesome - https://fontawesome.com License - https://fontawesome.com/license (Commercial License) Copyright 2024 Fonticons, Inc. --><path d="M480 32L160 32l0 64-32 0 0-64 0-32 32 0L480 0l32 0 0 32 0 320 0 32-32 0-64 0 0-32 64 0 0-320zM352 160L32 160l0 96 320 0 0-96zM32 480l320 0 0-192L32 288l0 192zm0-352l320 0 32 0 0 32 0 320 0 32-32 0L32 512 0 512l0-32L0 160l0-32 32 0z"/></svg>

<svg xmlns="http://www.w3.org/2000/svg" viewBox="0 0 512 512"><!--! Font Awesome Pro 6.4.2 by @fontawesome - https://fontawesome.com License - https://fontawesome.com/license (Commercial License) Copyright 2023 Fonticons, Inc. --><path d="M480 32H160V96H128V32 0h32H480h32V32 352v32H480 416V352h64V32zM352 160H32v96H352V160zM32 480H352V288H32V480zm0-352H352h32v32V480v32H352 32 0V480 160 128H32z"/></svg>
